public/images/icons/anyWeb.svg

<svg width="180" height="180" viewBox="0 0 180 180" fill="none" xmlns="http://www.w3.org/2000/svg">
<g clip-path="url(#clip0_3170_16801)">
<circle opacity="0.21" cx="90" cy="90" r="53" fill="#6667AB"/>
<circle opacity="0.15" cx="90" cy="90" r="61" fill="#6667AB"/>
<circle cx="90" cy="90" r="46" transform="rotate(-180 90 90)" fill="url(#paint0_linear_3170_16801)"/>
<circle cx="90" cy="90" r="38" fill="url(#paint1_linear_3170_16801)"/>
<circle cx="90" cy="90" r="38" fill="url(#paint2_linear_3170_16801)"/>
<g opacity="0.21" filter="url(#filter0_f_3170_16801)">
<path d="M159.722 106.526C168.803 68.0653 144.987 29.5248 106.526 20.4432C68.0659 11.3615 29.5253 35.1778 20.4437 73.6384C11.3621 112.099 35.1784 150.639 73.639 159.721C112.099 168.803 150.64 144.986 159.722 106.526Z" fill="#26233E"/>
</g>
<circle cx="90" cy="90" r="30" fill="#F0EEE9"/>
<path d="M99.6075 98.0151C99.9237 97.7521 100.233 97.4788 100.526 97.1899C100.594 97.1309 100.661 97.0619 100.725 96.9971C100.814 96.9094 100.901 96.8174 100.99 96.7254C101.079 96.6334 101.133 96.5729 101.208 96.4924C101.328 96.3602 101.448 96.225 101.563 96.0855C101.624 96.015 101.683 95.9417 101.742 95.8727C101.825 95.7765 101.903 95.6786 101.979 95.5852L102.165 95.3465L102.451 94.9539C102.662 94.6506 102.865 94.3399 103.058 94.0222C103.085 93.9834 103.111 93.9417 103.136 93.9014C103.16 93.8612 103.209 93.7749 103.244 93.7087C103.249 93.6971 103.256 93.6864 103.264 93.6772C103.575 93.1382 103.85 92.5796 104.089 92.0049L104.116 91.9388C104.16 91.8339 104.203 91.7274 104.245 91.6209C104.286 91.5147 104.339 91.3794 104.388 91.2587C104.437 91.1379 104.472 91.0157 104.514 90.892C104.598 90.6475 104.679 90.3988 104.746 90.1486C104.782 90.025 104.813 89.8985 104.846 89.7706C104.942 89.3938 105.028 89.0069 105.095 88.6202C105.115 88.5052 105.137 88.3902 105.154 88.2722C105.152 88.2522 105.155 88.232 105.162 88.2133C105.178 88.1255 105.19 88.0335 105.201 87.9445C105.213 87.8553 105.221 87.7863 105.23 87.7028C105.238 87.6195 105.251 87.5203 105.26 87.4283C105.274 87.2988 105.285 87.1694 105.295 87.0401C105.306 86.9106 105.313 86.8244 105.316 86.7151C105.316 86.6316 105.327 86.5469 105.327 86.4606C105.327 86.3743 105.336 86.3081 105.336 86.2276V85.8207C105.336 81.6248 103.676 77.6007 100.723 74.6338C97.7694 71.6668 93.7635 70 89.5867 70C85.4099 70 81.4041 71.6668 78.4506 74.6338C75.4971 77.6007 73.8379 81.6248 73.8379 85.8207C73.8379 86.0953 73.8379 86.3671 73.8594 86.6346C73.8594 86.7567 73.8737 86.8776 73.8823 86.9983L73.8994 87.2111C73.9123 87.3548 73.9266 87.4986 73.9438 87.6425C73.9419 87.6801 73.9458 87.7181 73.9553 87.7546C73.9767 87.917 73.9968 88.0795 74.024 88.242C74.0798 88.6347 74.1528 89.0229 74.2401 89.4067L74.5779 90.8705L74.6366 90.7985L75.524 89.7071C75.9062 89.2384 76.3198 88.7812 76.7549 88.3442C77.8307 87.252 79.0403 86.3016 80.3547 85.5159L80.7426 85.2944L80.7569 85.2858V85.1291C80.8554 83.8433 81.2309 82.5943 81.8574 81.4686C82.4839 80.3429 83.3465 79.3675 84.3853 78.6098C85.4242 77.8521 86.6145 77.3302 87.874 77.0804C89.1335 76.8305 90.4319 76.8585 91.6795 77.1626C92.9271 77.4667 94.0941 78.0395 95.0995 78.8414C96.105 79.6432 96.9249 80.655 97.5028 81.8067C98.0804 82.9584 98.4021 84.2225 98.4454 85.5114C98.4888 86.8004 98.2529 88.0833 97.7538 89.2716C97.7009 89.4039 97.6393 89.5376 97.5749 89.6669C97.5105 89.7963 97.4518 89.9229 97.3802 90.0508C97.313 90.1745 97.2371 90.2983 97.1669 90.419C96.9453 90.785 96.6979 91.1348 96.427 91.4657C96.2924 91.6338 96.1492 91.7946 95.9975 91.9474C95.8416 92.1041 95.6985 92.2508 95.5397 92.3931C95.4365 92.4923 95.3277 92.5843 95.2204 92.6735C95.113 92.7626 94.9972 92.8503 94.8855 92.9353C94.7739 93.02 94.6564 93.1063 94.5391 93.1825C94.273 93.3636 93.9973 93.5301 93.7133 93.6815C93.5572 93.7649 93.4026 93.841 93.2437 93.9144C93.2401 93.9129 93.236 93.9129 93.2322 93.9144C92.0903 94.4438 90.8474 94.718 89.5896 94.7181C88.1449 94.7168 86.7414 95.2013 85.6027 96.0942C84.4639 96.9873 83.6554 98.2375 83.3061 99.6456L83.163 100.25V100.27L83.7598 100.51C83.9029 100.569 84.0461 100.616 84.1892 100.668C84.5499 100.802 84.9206 100.923 85.2942 101.029C85.5432 101.099 85.7923 101.164 86.0485 101.223C86.4307 101.315 86.8171 101.388 87.205 101.444C87.3381 101.464 87.4669 101.483 87.5986 101.5C87.7303 101.518 87.8634 101.533 87.9951 101.545C88.2542 101.571 88.5175 101.592 88.7823 101.607H88.8496C89.1001 101.618 89.352 101.624 89.6039 101.624C89.8558 101.624 90.1092 101.624 90.3596 101.607H90.427C90.6917 101.592 90.955 101.571 91.2141 101.545C91.3459 101.533 91.4775 101.518 91.6107 101.5C91.7438 101.483 91.8711 101.464 92.0042 101.444C92.3935 101.388 92.7786 101.314 93.1608 101.223C93.4156 101.164 93.6659 101.099 93.915 101.029C94.0711 100.984 94.227 100.937 94.3788 100.885C94.5304 100.833 94.685 100.786 94.8368 100.733C95.0429 100.664 95.2462 100.589 95.4452 100.508C95.5425 100.47 95.6397 100.428 95.7314 100.385C96.3189 100.138 96.8898 99.8535 97.4403 99.5321L97.7668 99.3365L98.0903 99.1337C98.1832 99.0749 98.2749 99.0115 98.3764 98.9497C98.7014 98.7297 99.0219 98.4955 99.3297 98.251L99.6075 98.0151Z" fill="url(#paint3_radial_3170_16801)"/>
<path fill-rule="evenodd" clip-rule="evenodd" d="M85.1468 93.5106C84.8405 93.6917 84.5448 93.8898 84.2608 94.1044C82.8951 95.1304 81.8529 96.5303 81.2593 98.1362C81.1462 98.439 81.0506 98.7482 80.9731 99.0621C80.797 99.7674 80.7081 100.492 80.7082 101.219V104.172C80.7082 105.087 80.3463 105.965 79.7021 106.612C79.0579 107.259 78.1841 107.622 77.2731 107.622C76.362 107.622 75.4883 107.259 74.844 106.612C74.1998 105.965 73.8379 105.087 73.8379 104.172V101.219C73.8365 100.012 73.9724 98.808 74.243 97.6315C74.5753 96.189 75.1103 94.8016 75.8317 93.5106C75.9004 93.3841 75.9706 93.2604 76.0436 93.1367C76.7148 92.0072 77.522 90.9651 78.4468 90.0338C78.9756 89.5059 79.5389 89.014 80.1329 88.5614C80.4191 88.3529 80.7054 88.1489 80.9916 87.9604C81.8602 87.3886 82.7843 86.9067 83.7498 86.5226C87.502 85.0315 91.6785 85.0315 95.4309 86.5226L96.0278 86.7598L95.8717 87.3853C95.5272 88.7894 94.725 90.0372 93.5928 90.9303C92.4606 91.8232 91.0634 92.3098 89.624 92.3128C88.0521 92.3052 86.5067 92.7188 85.1468 93.5106ZM103.651 97.3353L104.597 96.1749L104.925 97.6358C105.194 98.8114 105.329 100.014 105.328 101.22V104.172C105.328 105.087 104.966 105.965 104.322 106.612C103.678 107.259 102.804 107.622 101.893 107.622C100.982 107.622 100.108 107.259 99.4642 106.612C98.82 105.965 98.4581 105.087 98.4581 104.172V101.725L98.8187 101.511C100.132 100.729 101.342 99.7832 102.42 98.6969C102.854 98.2653 103.265 97.8107 103.651 97.3353Z" fill="url(#paint4_linear_3170_16801)"/>
</g>
<defs>
<filter id="filter0_f_3170_16801" x="-2.48828" y="-2.48828" width="185.141" height="185.141" filterUnits="userSpaceOnUse" color-interpolation-filters="sRGB">
<feFlood flood-opacity="0" result="BackgroundImageFix"/>
<feBlend mode="normal" in="SourceGraphic" in2="BackgroundImageFix" result="shape"/>
<feGaussianBlur stdDeviation="10.5" result="effect1_foregroundBlur_3170_16801"/>
</filter>
<linearGradient id="paint0_linear_3170_16801" x1="89.9968" y1="136.007" x2="89.9968" y2="44" gradientUnits="userSpaceOnUse">
<stop stop-color="#BFB5FF"/>
<stop offset="1" stop-color="#6667AB"/>
</linearGradient>
<linearGradient id="paint1_linear_3170_16801" x1="89.9973" y1="128.005" x2="89.9973" y2="52" gradientUnits="userSpaceOnUse">
<stop stop-color="#BFB5FF"/>
<stop offset="1" stop-color="#6667AB"/>
</linearGradient>
<linearGradient id="paint2_linear_3170_16801" x1="89.9973" y1="128.005" x2="89.9973" y2="52" gradientUnits="userSpaceOnUse">
<stop stop-color="#BFB5FF"/>
<stop offset="1" stop-color="#6667AB"/>
</linearGradient>
<radialGradient id="paint3_radial_3170_16801" cx="0" cy="0" r="1" gradientUnits="userSpaceOnUse" gradientTransform="translate(88.1507 94.9452) rotate(-80.2476) scale(26.5557 26.4496)">
<stop stop-color="#4C81E8"/>
<stop offset="0.739583" stop-color="#4F87F5"/>
<stop offset="1" stop-color="#6096FF"/>
</radialGradient>
<linearGradient id="paint4_linear_3170_16801" x1="90.1954" y1="84.7219" x2="84.4703" y2="107.622" gradientUnits="userSpaceOnUse">
<stop stop-color="#5C5C5C"/>
<stop offset="0.296449" stop-color="#454545"/>
<stop offset="1" stop-color="#383838"/>
</linearGradient>
<clipPath id="clip0_3170_16801">
<rect width="180" height="180" fill="white"/>
</clipPath>
</defs>
</svg>

<svg width="180" height="180" viewBox="0 0 180 180" fill="none" xmlns="http://www.w3.org/2000/svg"><g clip-path="url(#clip0_3170_16801)"><circle opacity=".21" cx="90" cy="90" r="53" fill="#6667AB"/><circle opacity=".15" cx="90" cy="90" r="61" fill="#6667AB"/><circle cx="90" cy="90" r="46" transform="rotate(-180 90 90)" fill="url(#paint0_linear_3170_16801)"/><circle cx="90" cy="90" r="38" fill="url(#paint1_linear_3170_16801)"/><circle cx="90" cy="90" r="38" fill="url(#paint2_linear_3170_16801)"/><path d="M159.722 106.526c9.081-38.46-14.735-77.001-53.196-86.083-38.46-9.082-77 14.735-86.082 53.195-9.082 38.461 14.734 77.001 53.195 86.083 38.46 9.082 77.001-14.735 86.083-53.195z" fill="#26233E" opacity=".21" filter="url(#filter0_f_3170_16801)"/><circle cx="90" cy="90" r="30" fill="#F0EEE9"/><path d="M99.608 98.015c.316-.263.625-.536.918-.825.068-.06.135-.128.199-.193.089-.088.176-.18.265-.272.089-.092.143-.152.218-.233.12-.132.24-.267.355-.407.061-.07.12-.143.179-.212.083-.097.161-.194.237-.288l.186-.238.286-.393c.211-.303.414-.614.607-.932a2.764 2.764 0 0 0 .186-.313 14.438 14.438 0 0 0 .845-1.704l.027-.066c.044-.105.087-.212.129-.318.041-.106.094-.242.143-.362.049-.121.084-.243.126-.367.084-.245.165-.493.232-.743.036-.124.067-.25.1-.378.096-.377.182-.764.249-1.15.02-.116.042-.23.059-.349a.131.131 0 0 1 .008-.059 8.587 8.587 0 0 0 .068-.51c.008-.083.021-.183.03-.275a12.77 12.77 0 0 0 .056-.713c0-.083.011-.168.011-.254 0-.087.009-.153.009-.233v-.407c0-4.196-1.66-8.22-4.613-11.187A15.713 15.713 0 0 0 89.587 70a15.713 15.713 0 0 0-11.136 4.634 15.857 15.857 0 0 0-4.613 11.187c0 .274 0 .546.021.814 0 .122.015.243.023.363l.017.213c.013.144.028.288.045.431a.372.372 0 0 0 .011.113c.022.162.042.325.069.487.056.393.129.78.216 1.165l.338 1.464.059-.072.887-1.092c.382-.469.796-.926 1.23-1.363a18.058 18.058 0 0 1 3.6-2.828l.389-.222.014-.008v-.157a8.93 8.93 0 0 1 1.1-3.66 8.888 8.888 0 0 1 2.528-2.86 8.838 8.838 0 0 1 7.294-1.446 8.844 8.844 0 0 1 3.42 1.678 8.893 8.893 0 0 1 2.404 2.966 8.934 8.934 0 0 1 .072 7.86c-.065.13-.123.256-.195.384-.067.123-.143.247-.213.368a9.061 9.061 0 0 1-.74 1.047 6.055 6.055 0 0 1-.43.481c-.155.157-.299.304-.457.446-.104.1-.212.191-.32.28-.107.09-.223.177-.335.262a8.955 8.955 0 0 1-1.642.98.015.015 0 0 0-.01 0 8.662 8.662 0 0 1-3.643.803 6.451 6.451 0 0 0-3.987 1.376 6.502 6.502 0 0 0-2.297 3.552l-.143.604v.02l.597.24c.143.059.286.106.43.158a14.716 14.716 0 0 0 1.859.555c.382.092.768.165 1.156.221a19 19 0 0 0 .394.056 18.212 18.212 0 0 0 1.184.107h.067c.25.011.502.017.754.017s.505 0 .756-.017h.067a18.22 18.22 0 0 0 1.184-.107c.133-.017.26-.036.393-.056.39-.056.775-.13 1.157-.221.255-.059.505-.124.754-.194.156-.045.312-.092.464-.144.151-.052.306-.099.458-.152a10.227 10.227 0 0 0 .894-.348 14.649 14.649 0 0 0 1.71-.853l.326-.195.323-.203c.093-.06.185-.123.286-.184.325-.22.646-.454.954-.699l.278-.236z" fill="url(#paint3_radial_3170_16801)"/><path fill-rule="evenodd" clip-rule="evenodd" d="M85.147 93.51a9.43 9.43 0 0 0-.886.594 8.902 8.902 0 0 0-3.553 7.115v2.953c0 .915-.362 1.793-1.006 2.44a3.427 3.427 0 0 1-4.858 0 3.459 3.459 0 0 1-1.006-2.44v-2.953a15.925 15.925 0 0 1 .405-3.587 15.65 15.65 0 0 1 1.589-4.121c.068-.127.139-.25.212-.374a16.013 16.013 0 0 1 2.403-3.103 16.788 16.788 0 0 1 1.686-1.473c.286-.208.572-.412.859-.6a15.307 15.307 0 0 1 2.758-1.438 15.81 15.81 0 0 1 11.68 0l.598.237-.156.625a6.481 6.481 0 0 1-2.28 3.545 6.43 6.43 0 0 1-3.968 1.383 8.813 8.813 0 0 0-4.477 1.198zm18.504 3.825l.946-1.16.328 1.46a16.01 16.01 0 0 1 .403 3.585v2.952a3.46 3.46 0 0 1-1.006 2.44 3.427 3.427 0 0 1-4.858 0 3.459 3.459 0 0 1-1.006-2.44v-2.447l.36-.214a18.174 18.174 0 0 0 3.602-2.814c.434-.432.845-.886 1.231-1.362z" fill="url(#paint4_linear_3170_16801)"/></g><defs><filter id="filter0_f_3170_16801" x="-2.488" y="-2.488" width="185.141" height="185.141" filterUnits="userSpaceOnUse" color-interpolation-filters="sRGB"><feFlood flood-opacity="0" result="BackgroundImageFix"/><feBlend in="SourceGraphic" in2="BackgroundImageFix" result="shape"/><feGaussianBlur stdDeviation="10.5" result="effect1_foregroundBlur_3170_16801"/></filter><linearGradient id="paint0_linear_3170_16801" x1="89.997" y1="136.007" x2="89.997" y2="44" gradientUnits="userSpaceOnUse"><stop stop-color="#BFB5FF"/><stop offset="1" stop-color="#6667AB"/></linearGradient><linearGradient id="paint1_linear_3170_16801" x1="89.997" y1="128.005" x2="89.997" y2="52" gradientUnits="userSpaceOnUse"><stop stop-color="#BFB5FF"/><stop offset="1" stop-color="#6667AB"/></linearGradient><linearGradient id="paint2_linear_3170_16801" x1="89.997" y1="128.005" x2="89.997" y2="52" gradientUnits="userSpaceOnUse"><stop stop-color="#BFB5FF"/><stop offset="1" stop-color="#6667AB"/></linearGradient><radialGradient id="paint3_radial_3170_16801" cx="0" cy="0" r="1" gradientUnits="userSpaceOnUse" gradientTransform="matrix(4.4983 -26.17194 26.06738 4.48032 88.15 94.945)"><stop stop-color="#4C81E8"/><stop offset=".74" stop-color="#4F87F5"/><stop offset="1" stop-color="#6096FF"/></radialGradient><linearGradient id="paint4_linear_3170_16801" x1="90.195" y1="84.722" x2="84.47" y2="107.622" gradientUnits="userSpaceOnUse"><stop stop-color="#5C5C5C"/><stop offset=".296" stop-color="#454545"/><stop offset="1" stop-color="#383838"/></linearGradient><clipPath id="clip0_3170_16801"><path fill="#fff" d="M0 0h180v180H0z"/></clipPath></defs></svg>
